local/share/icons/dracula-icons-main/scalable/apps/session-properties.svg

<?xml version="1.0" encoding="UTF-8"?>
<svg xmlns="http://www.w3.org/2000/svg" xmlns:xlink="http://www.w3.org/1999/xlink" width="64" height="64" viewBox="0 0 64 64">
<path fill-rule="nonzero" fill="rgb(38.823529%, 64.313725%, 21.176471%)" fill-opacity="1" d="M 8.464844 1.324219 C 12.410156 1.324219 15.609375 4.519531 15.609375 8.464844 C 15.609375 12.410156 12.410156 15.609375 8.464844 15.609375 C 4.519531 15.609375 1.324219 12.410156 1.324219 8.464844 C 1.324219 4.519531 4.519531 1.324219 8.464844 1.324219 Z M 8.464844 1.324219 "/>
<path fill-rule="nonzero" fill="rgb(100%, 100%, 100%)" fill-opacity="1" d="M 9.03125 4.234375 L 7.902344 4.234375 L 7.902344 8.46875 L 9.03125 8.46875 "/>
<path fill-rule="nonzero" fill="rgb(100%, 100%, 100%)" fill-opacity="1" d="M 7.339844 4.375 C 5.503906 4.886719 4.238281 6.554688 4.234375 8.457031 C 4.234375 10.78125 6.128906 12.699219 8.46875 12.699219 C 10.804688 12.699219 12.699219 10.78125 12.699219 8.457031 C 12.695312 6.554688 11.429688 4.886719 9.597656 4.375 L 9.597656 5.46875 C 10.828125 5.953125 11.636719 7.136719 11.640625 8.457031 C 11.640625 10.238281 10.21875 11.667969 8.46875 11.667969 C 6.714844 11.667969 5.292969 10.238281 5.292969 8.457031 C 5.28125 7.128906 6.097656 5.929688 7.339844 5.449219 "/>
</svg>

<svg width="64" height="64" version="1.1" viewBox="0 0 16.933 16.933" xmlns="http://www.w3.org/2000/svg">
 <path d="m8.4665 1.3229c3.9454 0 7.1436 3.1982 7.1436 7.1436 0 3.9454-3.1982 7.1436-7.1436 7.1436-3.9454 0-7.1436-3.1982-7.1436-7.1436 0-3.9454 3.1982-7.1436 7.1436-7.1436z" fill="#63a436" stroke-width=".2991"/>
 <g fill="#fff" stroke-width=".938">
  <path d="m9.031 4.233h-1.129v4.234h1.13"/>
  <path d="m7.338 4.375a4.248 4.248 0 0 0-3.105 4.083c0 2.323 1.895 4.242 4.234 4.242 2.338 0 4.233-1.92 4.233-4.242a4.248 4.248 0 0 0-3.104-4.083v1.093a3.225 3.225 0 0 1 2.046 2.99c0 1.782-1.423 3.21-3.175 3.21-1.751 0-3.175-1.429-3.175-3.21a3.2 3.2 0 0 1 2.046-3.007"/>
 </g>
</svg>
